X: 305830
M: 6/8
L: 1/8
K: G
d |\
d |\
g2g g2g | f2e e2d | ddd dge | d2c B2d |\
g2g g2f | f2e e2d | ddd dge | d2c B2d |
ggg ggg | ggg ggg | ggg aga | b2a g2e |\
dge dge | dge dge | dba gfe | d^cd ed"^D.C."=c |]



